src/assets/images/icons/alarm-line.svg

<svg width="24" height="24" viewBox="0 0 24 24" fill="none" xmlns="http://www.w3.org/2000/svg">
<g clip-path="url(#clip0_58_16252)">
<path d="M11.9999 22.0001C10.8181 22.0001 9.64773 21.7673 8.5558 21.315C7.46387 20.8627 6.47171 20.1998 5.63599 19.364C4.80026 18.5283 4.13732 17.5362 3.68503 16.4442C3.23274 15.3523 2.99995 14.182 2.99995 13.0001C2.99995 11.8182 3.23274 10.6479 3.68503 9.55592C4.13732 8.46399 4.80026 7.47184 5.63599 6.63611C6.47171 5.80038 7.46387 5.13745 8.5558 4.68515C9.64773 4.23286 10.8181 4.00007 11.9999 4.00007C14.3869 4.00007 16.6761 4.94828 18.3639 6.63611C20.0517 8.32394 20.9999 10.6131 20.9999 13.0001C20.9999 15.387 20.0517 17.6762 18.3639 19.364C16.6761 21.0519 14.3869 22.0001 11.9999 22.0001ZM11.9999 20.0001C12.9192 20.0001 13.8295 19.819 14.6787 19.4672C15.528 19.1154 16.2997 18.5998 16.9497 17.9498C17.5997 17.2998 18.1153 16.5281 18.4671 15.6789C18.8189 14.8296 18.9999 13.9193 18.9999 13.0001C18.9999 12.0808 18.8189 11.1706 18.4671 10.3213C18.1153 9.47201 17.5997 8.70033 16.9497 8.05032C16.2997 7.40031 15.528 6.8847 14.6787 6.53291C13.8295 6.18113 12.9192 6.00007 11.9999 6.00007C10.1434 6.00007 8.36296 6.73757 7.0502 8.05032C5.73745 9.36308 4.99995 11.1436 4.99995 13.0001C4.99995 14.8566 5.73745 16.6371 7.0502 17.9498C8.36296 19.2626 10.1434 20.0001 11.9999 20.0001ZM12.9999 13.0001H15.9999V15.0001H10.9999V8.00007H12.9999V13.0001ZM1.74695 6.28207L5.28195 2.74707L6.69695 4.16107L3.15995 7.69707L1.74695 6.28207ZM18.7169 2.74707L22.2529 6.28207L20.8389 7.69707L17.3029 4.16107L18.7179 2.74707H18.7169Z" fill="#181D27"/>
</g>
<defs>
<clipPath id="clip0_58_16252">
<rect width="24" height="24" fill="white"/>
</clipPath>
</defs>
</svg>

<svg xmlns="http://www.w3.org/2000/svg" width="24" height="24" fill="none" viewBox="0 0 24 24"><g clip-path="url(#a)"><path fill="#181d27" d="M12 22a9 9 0 1 1 0-18 9 9 0 0 1 0 18m0-2a7 7 0 1 0 0-13.999 7 7 0 0 0 0 14m1-7h3v2h-5V8h2zM1.747 6.282l3.535-3.535 1.415 1.414L3.16 7.697zm16.97-3.535 3.536 3.535-1.414 1.415-3.536-3.536z"/></g><defs><clipPath id="a"><path fill="#fff" d="M0 0h24v24H0z"/></clipPath></defs></svg>
